svgs/solid/files-medical.svg

<svg xmlns="http://www.w3.org/2000/svg" viewBox="0 0 448 512"><!-- Font Awesome Pro 6.0.0-alpha2 by @fontawesome - https://fontawesome.com License - https://fontawesome.com/license (Commercial License) --><path d="M352 464C352 490.508 330.51 512 304 512H64C28.654 512 0 483.346 0 448V144C0 117.492 21.49 96 48 96V432C48 449.673 62.327 464 80 464H352ZM352 0V96H448L352 0ZM352 128H448V368C448 394.508 426.51 416 400 416H144C117.49 416 96 394.508 96 368V48C96 21.492 117.49 0 144 0H320V96C320 113.602 334.4 128 352 128ZM354.285 224H304V173.711C304 166.141 297.859 160 290.285 160H253.715C246.141 160 240 166.141 240 173.711V224H189.715C182.141 224 176 230.141 176 237.711V274.285C176 281.859 182.141 288 189.715 288H240V338.285C240 345.859 246.141 352 253.715 352H290.285C297.859 352 304 345.859 304 338.285V288H354.285C361.859 288 368 281.859 368 274.285V237.711C368 230.141 361.859 224 354.285 224Z"/></svg>

<svg xmlns="http://www.w3.org/2000/svg" viewBox="0 0 448 512"><!--! Font Awesome Pro 6.0.0-alpha3 by @fontawesome - https://fontawesome.com License - https://fontawesome.com/license (Commercial License) --><path d="M352 0v96h96L352 0zM352 128h96v240c0 26.51-21.49 48-48 48h-256C117.5 416 96 394.5 96 368v-320C96 21.49 117.5 0 144 0H320v96C320 113.6 334.4 128 352 128zM354.3 224H304V173.7C304 166.1 297.9 160 290.3 160h-36.57C246.1 160 240 166.1 240 173.7V224H189.7C182.1 224 176 230.1 176 237.7v36.57C176 281.9 182.1 288 189.7 288H240v50.29C240 345.9 246.1 352 253.7 352h36.57C297.9 352 304 345.9 304 338.3V288h50.29C361.9 288 368 281.9 368 274.3V237.7C368 230.1 361.9 224 354.3 224zM328 512h-208C53.83 512 0 458.2 0 392v-272C0 106.8 10.75 96 24 96S48 106.8 48 120v272c0 39.7 32.3 72 72 72h208c13.25 0 24 10.75 24 24S341.3 512 328 512z"/></svg>
